assets/svgs/pages/app-development/sail.svg

<svg viewBox="0 0 102.7 78.32" xmlns="http://www.w3.org/2000/svg"><path d="m88.64 47.06h-33.64v-44.69zm-32.14-1.5h29.13l-29.13-38.71z" fill="#c4c4c4"/><path d="m36.28 46.31h53.1" fill="#ecf3f6"/><g fill="#c4c4c4"><path d="m36.28 45.56h53.11v1.5h-53.11z"/><path d="m56.5 47.06h-19.24l19.24-37.66zm-16.79-1.5h15.29v-29.92z"/><path d="m37.72 63.1a5.15 5.15 0 0 1 -.72-2.55v-5.63h50.4l-3.4 6.24a12 12 0 0 1 -1.73 1.84c.75 0 1.44 0 2.09.06a11.27 11.27 0 0 0 .84-1l4-7.24a.92.92 0 0 0 -.81-1.36h-52.86v7.13a6.7 6.7 0 0 0 .59 2.76c.5-.12 1.03-.19 1.6-.25z"/><path d="m61.62 66.66a26.76 26.76 0 0 0 7.2-.85h-14.41a26.84 26.84 0 0 0 7.21.85z"/></g><path d="m102.7 67.41a26.89 26.89 0 0 1 -10.53-1.9 25 25 0 0 0 -10-1.82 25 25 0 0 0 -10 1.82 26.83 26.83 0 0 1 -10.52 1.9 26.89 26.89 0 0 1 -10.53-1.9 25 25 0 0 0 -10-1.82 25.06 25.06 0 0 0 -10 1.82 26.79 26.79 0 0 1 -10.52 1.9v-1.5a25.27 25.27 0 0 0 10-1.81 26.57 26.57 0 0 1 10.52-1.91 26.57 26.57 0 0 1 10.48 1.91 25.27 25.27 0 0 0 10 1.81 25.17 25.17 0 0 0 10-1.81 26.67 26.67 0 0 1 10.53-1.91 26.61 26.61 0 0 1 10.55 1.91 25.23 25.23 0 0 0 10 1.81z" fill="#ff7c6c"/><path d="m61.62 78.32a26.7 26.7 0 0 1 -10.53-1.9 25.17 25.17 0 0 0 -10-1.81 25.27 25.27 0 0 0 -10 1.81 26.61 26.61 0 0 1 -10.52 1.9 26.61 26.61 0 0 1 -10.57-1.9 25.27 25.27 0 0 0 -10-1.81v-1.5a26.79 26.79 0 0 1 10.52 1.89 25.27 25.27 0 0 0 10 1.81 25.17 25.17 0 0 0 10-1.81 26.89 26.89 0 0 1 10.53-1.9 26.79 26.79 0 0 1 10.55 1.9 25.27 25.27 0 0 0 10 1.81z" fill="#ff7c6c"/><path d="m55 0h1.5v54.51h-1.5z" fill="#c4c4c4"/></svg>

<svg id="Layer_1" data-name="Layer 1" xmlns="http://www.w3.org/2000/svg" viewBox="0 0 102.7 78.32"><defs><style>.cls-1abc03v{fill:#c4c4c4;}.cls-2abc03v{fill:#ecf3f6;}.cls-3abc03v{fill:#ff7c6c;}</style></defs><title>ss-sail</title><path class="cls-1abc03v" d="M88.64,47.06H55V2.37ZM56.5,45.56H85.63L56.5,6.85Z"/><line class="cls-2abc03v" x1="36.28" y1="46.31" x2="89.38" y2="46.31"/><rect class="cls-1abc03v" x="36.28" y="45.56" width="53.11" height="1.5"/><path class="cls-1abc03v" d="M56.5,47.06H37.26L56.5,9.4Zm-16.79-1.5H55V15.64Z"/><path class="cls-1abc03v" d="M37.72,63.1A5.15,5.15,0,0,1,37,60.55V54.92h50.4L84,61.16A12,12,0,0,1,82.27,63c.75,0,1.44,0,2.09.06a11.27,11.27,0,0,0,.84-1l4-7.24a.92.92,0,0,0-.81-1.36H35.53v7.13a6.7,6.7,0,0,0,.59,2.76C36.62,63.23,37.15,63.16,37.72,63.1Z"/><path class="cls-1abc03v" d="M61.62,66.66a26.76,26.76,0,0,0,7.2-.85H54.41A26.84,26.84,0,0,0,61.62,66.66Z"/><path class="cls-3abc03v" d="M102.7,67.41a26.89,26.89,0,0,1-10.53-1.9,25,25,0,0,0-10-1.82,25,25,0,0,0-10,1.82,26.83,26.83,0,0,1-10.52,1.9,26.89,26.89,0,0,1-10.53-1.9,25,25,0,0,0-10-1.82,25.06,25.06,0,0,0-10,1.82,26.79,26.79,0,0,1-10.52,1.9v-1.5a25.27,25.27,0,0,0,10-1.81,26.57,26.57,0,0,1,10.52-1.91A26.57,26.57,0,0,1,51.6,64.1a25.27,25.27,0,0,0,10,1.81,25.17,25.17,0,0,0,10-1.81,26.67,26.67,0,0,1,10.53-1.91A26.61,26.61,0,0,1,92.68,64.1a25.23,25.23,0,0,0,10,1.81Z"/><path class="cls-3abc03v" d="M61.62,78.32a26.7,26.7,0,0,1-10.53-1.9,25.17,25.17,0,0,0-10-1.81,25.27,25.27,0,0,0-10,1.81,26.61,26.61,0,0,1-10.52,1.9A26.61,26.61,0,0,1,10,76.42,25.27,25.27,0,0,0,0,74.61v-1.5A26.79,26.79,0,0,1,10.52,75a25.27,25.27,0,0,0,10,1.81,25.17,25.17,0,0,0,10-1.81,26.89,26.89,0,0,1,10.53-1.9A26.79,26.79,0,0,1,51.6,75a25.27,25.27,0,0,0,10,1.81Z"/><rect class="cls-1abc03v" x="55" width="1.5" height="54.51"/></svg>
